!!!OTL: 752. Liebe und Erkenntniss Christi.
!!!COM: Volksmelodie
!!!ARE: Europa, Mitteleuropa, Deutschland, Schlesien
!!!SCT: B0752
!!!TXL: @@DE
!!!YEM: Copyright 1995, estate of Helmut Schaffrath.
**kern	**text
*ICvox	*
*Ivox	*
*clefG2	*
*M3/4	*
*k[b-]	*
*F:	*
!LO:TX:a:t=Ruhig.	!
{4f	Der
=1	=1
2cc	be-
4cc	-ſte
=2	=2
(4cc	Freund
4b-)	.
4a	iſt
=3	=3
(4cc	in
4b-)	.
4a	dem
=4	=4
4g	Him-
4f}	-mel,
{4c	auf
=5	=5
(4b-	Er-
4a)	.
4g	-den
=6	=6
2a	ſind
4a	die
=7	=7
(4cc	Freun-
4b-)	.
4a	-de
=8	=8
2g}	rar,
{4f	denn
=9	=9
2cc	bei
4cc	dem
=10	=10
(4cc	fal-
4b-)	.
4a	-ſchen
=11	=11
(4cc	Welt-
4b-)	.
4a	-ge-
=12	=12
4g	-tüm-
4f}	-mel
{4c	iſt
=13	=13
(4b-	Red-
4a)	.
4g	-lich-
=14	=14
2a	-keit
4a	oft
=15	=15
(4cc	in
4b-)	.
4a	Ge-
=16	=16
2g}	-fahr.
{4g	Drum
=17	=17
2g	hab'
4g	ich
=18	=18
2a	im-
4a	-mer
=19	=19
(<4b-	ſo
4a)	.
4b-	gemeint
=20	=20
2cc}	.
{4cc	mein
=21	=21
(4ff	Je-
4ee)	.
4dd	-ſus
=22	=22
(4.cc	iſt
8dd)	.
8ccL	der
8b-J	.
=23	=23
2a	be-
4g	-ſte
=24	=24
2f}	Freund.
==	==
!!!AGN: Moral - Lied, religioes
!!!GTL: Religioese Lieder
!!!ONB: ESAC (Essen Associative Code) Database: BOEHME
!!!AMT: simple triple
!!!AIN: vox
!!!EED: Helmut Schaffrath
!!!EEV: 1.0
!!!RDF**kern: < = below
!!Volksmelodie, in Schleſien ſeit 1821 bekannt.
!!@@COMMENT:"Gedicht von Benjamin Schmolke 1704. Hier gekürʒt. Kommt in älteren Geſangbüchern
!!vor und hat in Choralbüchern ſeine Melodie gefunden. Die hier ſtehende iſt arienhafte Singweiſe,
!!vermuthlich für Singchöre beſtimmt und durch ſolche weiter verbreitet, wurde ʒur Hausandacht
!!verwendet. Sie wird am Rhein und im Naſſauiſchen noch jetʒt ʒuweilen geſungen."
!!@@END:
!!!Text: B. Schmolke
!!!URL-scan: https://archive.org/details/BoehmeVtLieder1895/page/n605/mode/2up
!!!ENC: Anna Maria Matuszewska
!!!EEV: 2024/19/07
*-	*-
